icon-svg/playstation-5.svg

<svg xmlns="http://www.w3.org/2000/svg" fill="#44739e" viewBox="0 0 24 24"><path d="M23.7967 9.42H16.449v1.9919s-.0224.7691.9288.7691h4.4914a1.26 1.26 90 0 1 .5123.1042c.2508.1118.5327.3395.5327.7987 0 .4121-.1997.6461-.3973.7771a1 1 90 0 1-.5495.1597H16.449v.5591h6.1533S24 14.5231 24 13.0867c0-.7304-.4265-1.0922-.8102-1.2695a1.88 1.88 90 0 0-.7907-.1713h-4.4514a.45.45 90 0 1-.2133-.0507c-.095-.0515-.1996-.1538-.1996-.355V9.9715h6.2619ZM7.2008 14.0187v.5591h3.1188a1.546 1.546 90 0 0 1.0183-.3686 1.289 1.289 90 0 0 .4544-1.0127v-2.3764a.859.859 90 0 1 .3195-.6789.8.8 90 0 1 .5036-.1697h2.719V9.42h-3.2382s-1.3976.0224-1.3976 1.5007v2.2191a.963.963 90 0 1-.1414.5155.75.75 90 0 1-.6669.3646ZM0 9.42v.5515h5.5587a1.05 1.05 90 0 1 .4481.0962c.2204.1034.468.3163.468.748 0 .4193-.2476.6289-.468.7327a1.07 1.07 90 0 1-.4552.0975H1.4288a1.57 1.57 90 0 0-.7044.1597c-.343.1721-.7244.5775-.7244 1.246v1.5222h1.0698v-1.5155a.79.79 90 0 1 .0523-.2875c.0883-.2264.3115-.5898.8335-.5898h4.157a1.5 1.5 90 0 0 .4137-.0555c.3818-.1086 1.0183-.4225 1.0183-1.3098 0-1.3789-1.3725-1.3957-1.3725-1.3957Z"/></svg>

<?xml version="1.0" encoding="UTF-8"?>
<svg xmlns="http://www.w3.org/2000/svg" viewBox="0 0 24 24" fill="#44739e">
	<path d="M23.7967 9.42H16.449V11.4119S16.4266 12.181 17.3778 12.181H21.8692A1.2607 1.2607 90 0122.3815 12.2852C22.6323 12.397 22.9142 12.6247 22.9142 13.0839 22.9142 13.496 22.7145 13.73 22.5169 13.861A.9983.9983 90 0121.9674 14.0207H16.449V14.5798H22.6023S24 14.5231 24 13.0867C24 12.3563 23.5735 11.9945 23.1898 11.8172A1.8769 1.8769 90 0022.3991 11.6459H17.9477A.4489.4489 90 0117.7344 11.5952C17.6394 11.5437 17.5348 11.4414 17.5348 11.2402V9.9715H23.7967ZM7.2008 14.0187V14.5778H10.3196A1.5458 1.5458 90 0011.3379 14.2092 1.2886 1.2886 90 0011.7923 13.1965V10.8201A.8586.8586 90 0112.1118 10.1412.7987.7987 90 0112.6154 9.9715H15.3344V9.42H12.0962S10.6986 9.4424 10.6986 10.9207V13.1398A.9632.9632 90 0110.5572 13.6553.7499.7499 90 019.8903 14.0199ZM0 9.42V9.9715H5.5587A1.0495 1.0495 90 016.0068 10.0677C6.2272 10.1711 6.4748 10.384 6.4748 10.8157 6.4748 11.235 6.2272 11.4446 6.0068 11.5484A1.0694 1.0694 90 015.5516 11.6459H1.4288A1.5686 1.5686 90 00.7244 11.8056C.3814 11.9777 0 12.3831 0 13.0516V14.5738H1.0698V13.0583A.7851.7851 90 011.1221 12.7708C1.2104 12.5444 1.4336 12.181 1.9556 12.181H6.1126A1.5087 1.5087 90 006.5263 12.1255C6.9081 12.0169 7.5446 11.703 7.5446 10.8157 7.5446 9.4368 6.1721 9.42 6.1721 9.42Z"/>
</svg>
